X: 36236
T: Sea Breeze, The
R: reel
M: 4/4
K: Eminor
B ~E3 DEBG|~A3 BedB d|B~E3BAGE|~D3 E FEDF|
B ~E3 DEBG|~A3 BedB d|~e3 f gfed|BcBA GABd:|
Be2f gfaf|Bd2e dBGA|BeBg BfBe|~B3 c BAGA|
Be2f gfaf|Bd2e dBGA|B~E3 BAGA|~F3 G AcBA:|

